Obsidian-SemiLight/actions/16s/document-edit-decrypt.svg

<svg viewBox="0 0 16 16" xmlns="http://www.w3.org/2000/svg"><path d="m3 2v2h2v-2zm4 0v2h2v-2zm4 0v2h2v-2zm-6 3v2h2v-2zm4 0v2h2v-2zm-6 2v7h6 1l3-3v-1-3h-1v3h-3v3h-5v-6z" fill="#4d4d4d"/></svg>

<svg xmlns="http://www.w3.org/2000/svg" viewBox="0 0 16 16">
  <defs id="defs3051">
    <style type="text/css" id="current-color-scheme">
      .ColorScheme-Text {
        color:#4d4d4d;
      }
      </style>
  </defs>
 <path style="fill:currentColor;fill-opacity:1;stroke:none" 
     d="M 3 2 L 3 4 L 5 4 L 5 2 L 3 2 z M 7 2 L 7 4 L 9 4 L 9 2 L 7 2 z M 11 2 L 11 4 L 13 4 L 13 2 L 11 2 z M 5 5 L 5 7 L 7 7 L 7 5 L 5 5 z M 9 5 L 9 7 L 11 7 L 11 5 L 9 5 z M 3 7 L 3 14 L 9 14 L 10 14 L 13 11 L 13 10 L 13 7 L 12 7 L 12 10 L 9 10 L 9 13 L 4 13 L 4 7 L 3 7 z "
     class="ColorScheme-Text"
     />
</svg>
